X: 1
T: a Tune for Shira
C: Ian Powrie
N: "for his dog German Shorthaired Pointer"
R: reel, march
B: Version from the Concord Slow Scottish Jam session binder 2.
Z: 2015 John Chambers <jc:trillian.mit.edu>
M: 4/4
L: 1/8
K: G
D2 |:\
"G"G2A2 "G7"B2d2 | "C"cBAG "Am"C2D2 | "G"G2A2 "G7"B2d2 | "A7"edef "D7"d2D2 |\
"G"G2A2 "G7"B2d2 | "C"cBAG "Am"C2E2 | "G/d"D2B2 "D7"c2F2 | "G"G4 G2 :|
d2 |\
"G"g2B2 "G7"d2g2 | "C"edcB "Am"c2e2 | "G"d2G2 B2d2 | "A7"edef "D7"d2f2 |\
"G"g2B2 "G7"d2B2 | "C"cBAG "Am"C2E2 | "G/d"D2B2 "D7"c2F2 | "G"G4 G2 |]
B2 |\
"G"g2B2 "G7"d2g2 | "C"edcB "Am"c2e2 | "G"d2G2 B2d2 | "C"cBAG "D7"A2B2 |\
"G"G2A2 "G7"B2d2 | "C"cBAG "Am"C2E2 | "G/d"D2B2 "D7"c2F2 | "G"G4 G2 :|
